docs/.gitbook/assets/chain-icons/provenance.svg

<svg xmlns="http://www.w3.org/2000/svg" width="512" height="512" fill="none"><path fill="#2A7DE1" fill-rule="evenodd" d="M265.233 2.545a19.298 19.298 0 0 0-19.156 0l-205.5 118.734A19.02 19.02 0 0 0 31 137.758v237.47a19.017 19.017 0 0 0 9.578 16.479l83.242 48.17V199.168a19.291 19.291 0 0 1 9.014-16.057l56.34-34.93 56.34-34.508a19.022 19.022 0 0 1 20 0l56.34 34.508 56.34 34.93a19.3 19.3 0 0 1 9.014 16.339v113.945a19.007 19.007 0 0 1-9.014 16.339l-56.34 35.071-56.34 34.367c-5.352 3.38-10.704-2.113-10.704-8.451V345.65a18.457 18.457 0 0 1 10.704-14.085l47.185-29.156a19.294 19.294 0 0 0 9.014-16.338V239.45a18.867 18.867 0 0 0-9.014-15.915l-46.903-28.17a19.013 19.013 0 0 0-20 0l-46.763 28.17a18.741 18.741 0 0 0-9.296 15.915v234.793c.07.844.07 1.692 0 2.536l56.34 32.676a19.293 19.293 0 0 0 19.156 0l205.64-118.734a19.018 19.018 0 0 0 9.578-16.479V137.758a19.014 19.014 0 0 0-9.578-16.479L265.233 2.545Z" clip-rule="evenodd"/></svg>

<svg width="512" height="512" viewBox="0 0 512 512" fill="none" xmlns="http://www.w3.org/2000/svg">
<path fill-rule="evenodd" clip-rule="evenodd" d="M265.233 2.54473C262.316 0.877171 259.015 0 255.655 0C252.295 0 248.994 0.877171 246.077 2.54473L40.5778 121.279C37.6723 122.94 35.2566 125.339 33.5749 128.232C31.8932 131.126 31.005 134.412 31 137.758V375.228C31.005 378.574 31.8932 381.86 33.5749 384.754C35.2566 387.647 37.6723 390.046 40.5778 391.707L123.82 439.877V199.168C123.865 195.952 124.714 192.799 126.288 189.995C127.862 187.191 130.113 184.825 132.834 183.111L189.174 148.181L245.514 113.673C248.519 111.816 251.981 110.831 255.514 110.831C259.047 110.831 262.51 111.816 265.514 113.673L321.854 148.181L378.194 183.111C380.956 184.85 383.231 187.261 384.808 190.118C386.384 192.976 387.21 196.186 387.208 199.45V313.395C387.237 316.664 386.422 319.884 384.843 322.746C383.264 325.608 380.974 328.015 378.194 329.734L321.854 364.805L265.514 399.172C260.162 402.552 254.81 397.059 254.81 390.721V345.65C255.272 342.593 256.494 339.702 258.364 337.241C260.234 334.78 262.693 332.828 265.514 331.565L312.699 302.409C315.461 300.67 317.736 298.26 319.313 295.402C320.889 292.545 321.715 289.334 321.713 286.071V239.45C321.683 236.251 320.84 233.112 319.263 230.328C317.686 227.543 315.428 225.206 312.699 223.535L265.796 195.365C262.791 193.507 259.329 192.523 255.796 192.523C252.263 192.523 248.8 193.507 245.796 195.365L199.033 223.535C196.243 225.161 193.921 227.481 192.293 230.27C190.664 233.059 189.784 236.221 189.737 239.45V273.113V413.961V474.243C189.807 475.087 189.807 475.935 189.737 476.779L246.077 509.455C248.994 511.123 252.295 512 255.655 512C259.015 512 262.316 511.123 265.233 509.455L470.873 390.721C473.779 389.06 476.194 386.661 477.876 383.768C479.558 380.874 480.446 377.588 480.451 374.242V137.758C480.446 134.412 479.558 131.126 477.876 128.232C476.194 125.339 473.779 122.94 470.873 121.279L265.233 2.54473Z" fill="#2A7DE1"/>
</svg>
